flaticon/interaction/envelope-1.svg

<svg xmlns="http://www.w3.org/2000/svg" width="32" height="32" viewBox="0 0 24 24">
    <path d="M 23.199219 14.042969 L 23.199219 2.398438 C 23.199219 2.398438 23.199219 2.394531 23.199219 2.390625 C 23.195312 2.347656 23.191406 2.300781 23.175781 2.257812 C 23.171875 2.253906 23.171875 2.253906 23.171875 2.25 C 23.164062 2.242188 23.160156 2.230469 23.152344 2.222656 C 23.136719 2.1875 23.117188 2.160156 23.09375 2.132812 C 23.082031 2.121094 23.074219 2.113281 23.0625 2.101562 C 23.035156 2.082031 23.007812 2.0625 22.980469 2.046875 C 22.964844 2.039062 22.953125 2.035156 22.941406 2.027344 C 22.894531 2.011719 22.847656 2 22.800781 2 L 0.398438 2 C 0.351562 2 0.304688 2.011719 0.257812 2.027344 C 0.246094 2.035156 0.234375 2.039062 0.222656 2.046875 C 0.191406 2.0625 0.164062 2.082031 0.140625 2.101562 C 0.128906 2.113281 0.117188 2.121094 0.105469 2.132812 C 0.0820312 2.160156 0.0625 2.1875 0.046875 2.222656 C 0.0429688 2.230469 0.0351562 2.242188 0.03125 2.25 C 0.0273438 2.253906 0.0273438 2.253906 0.0273438 2.257812 C 0.0078125 2.300781 0.00390625 2.347656 0.00390625 2.390625 C 0 2.394531 0 2.398438 0 2.398438 L 0 18 C 0 18 0 18.003906 0 18.003906 C 0 18.046875 0.0078125 18.089844 0.0234375 18.132812 C 0.0234375 18.136719 0.0273438 18.140625 0.0273438 18.144531 C 0.0351562 18.160156 0.0429688 18.171875 0.0507812 18.183594 C 0.0664062 18.210938 0.0820312 18.242188 0.105469 18.265625 C 0.117188 18.277344 0.125 18.289062 0.140625 18.296875 C 0.164062 18.320312 0.191406 18.335938 0.21875 18.351562 C 0.230469 18.359375 0.246094 18.367188 0.257812 18.371094 C 0.304688 18.386719 0.351562 18.398438 0.398438 18.398438 L 13.855469 18.398438 C 14.53125 20.488281 16.492188 22 18.800781 22 C 21.667969 22 24 19.667969 24 16.800781 C 24 15.785156 23.703125 14.84375 23.199219 14.042969 Z M 22.082031 12.769531 C 21.988281 12.695312 21.890625 12.625 21.792969 12.554688 C 21.753906 12.527344 21.71875 12.5 21.679688 12.472656 C 21.585938 12.410156 21.484375 12.351562 21.382812 12.292969 C 21.335938 12.265625 21.292969 12.238281 21.25 12.214844 C 21.152344 12.164062 21.054688 12.117188 20.953125 12.074219 C 20.902344 12.046875 20.847656 12.019531 20.792969 11.996094 C 20.699219 11.960938 20.605469 11.925781 20.507812 11.894531 C 20.445312 11.871094 20.378906 11.847656 20.316406 11.828125 C 20.222656 11.796875 20.128906 11.777344 20.035156 11.753906 C 19.964844 11.738281 19.894531 11.714844 19.824219 11.703125 C 19.71875 11.679688 19.617188 11.667969 19.511719 11.65625 C 19.445312 11.644531 19.382812 11.632812 19.316406 11.625 C 19.148438 11.609375 18.972656 11.601562 18.800781 11.601562 C 17.914062 11.601562 17.078125 11.824219 16.347656 12.214844 L 14.238281 10.492188 L 22.398438 3.285156 L 22.398438 13.046875 C 22.332031 12.984375 22.257812 12.925781 22.1875 12.863281 C 22.152344 12.832031 22.117188 12.800781 22.082031 12.769531 Z M 21.742188 2.800781 L 13.324219 10.234375 C 13.316406 10.242188 13.3125 10.242188 13.304688 10.25 L 12.519531 10.945312 C 12.011719 11.398438 11.1875 11.398438 10.679688 10.941406 L 9.886719 10.246094 C 9.886719 10.242188 9.886719 10.238281 9.882812 10.234375 C 9.871094 10.226562 9.859375 10.21875 9.847656 10.210938 L 1.457031 2.800781 Z M 8.976562 10.503906 C 6.753906 12.445312 2.433594 15.882812 0.800781 17.175781 L 0.800781 3.285156 Z M 13.664062 17.601562 L 1.550781 17.601562 C 3.371094 16.160156 7.472656 12.886719 9.578125 11.039062 L 10.148438 11.542969 C 10.546875 11.898438 11.074219 12.078125 11.601562 12.078125 C 12.125 12.078125 12.652344 11.898438 13.050781 11.542969 L 13.632812 11.03125 L 15.644531 12.671875 C 15.628906 12.683594 15.621094 12.695312 15.605469 12.707031 C 15.488281 12.796875 15.378906 12.894531 15.269531 12.992188 C 15.234375 13.027344 15.195312 13.058594 15.160156 13.09375 C 15.0625 13.191406 14.96875 13.292969 14.878906 13.394531 C 14.78125 13.503906 14.695312 13.621094 14.609375 13.734375 C 14.566406 13.792969 14.519531 13.851562 14.480469 13.914062 C 14.417969 14.007812 14.359375 14.101562 14.304688 14.199219 C 14.269531 14.257812 14.234375 14.316406 14.203125 14.378906 C 14.152344 14.472656 14.105469 14.570312 14.0625 14.671875 C 14.03125 14.738281 14 14.808594 13.972656 14.878906 C 13.933594 14.972656 13.898438 15.066406 13.867188 15.164062 C 13.839844 15.25 13.816406 15.335938 13.792969 15.421875 C 13.769531 15.511719 13.742188 15.597656 13.722656 15.6875 C 13.699219 15.796875 13.683594 15.90625 13.664062 16.019531 C 13.65625 16.089844 13.640625 16.160156 13.632812 16.230469 C 13.613281 16.417969 13.601562 16.609375 13.601562 16.800781 C 13.601562 16.949219 13.609375 17.097656 13.621094 17.25 C 13.628906 17.339844 13.640625 17.425781 13.652344 17.507812 C 13.660156 17.539062 13.660156 17.570312 13.664062 17.601562 Z M 18.800781 21.199219 C 16.753906 21.199219 15.035156 19.792969 14.542969 17.898438 C 14.5 17.722656 14.464844 17.542969 14.441406 17.371094 C 14.441406 17.355469 14.4375 17.34375 14.4375 17.332031 C 14.414062 17.152344 14.398438 16.976562 14.398438 16.800781 C 14.398438 16.625 14.414062 16.453125 14.433594 16.28125 C 14.441406 16.226562 14.449219 16.167969 14.460938 16.113281 C 14.476562 16 14.496094 15.890625 14.523438 15.78125 C 14.539062 15.714844 14.554688 15.648438 14.574219 15.585938 C 14.601562 15.484375 14.636719 15.386719 14.671875 15.292969 C 14.695312 15.230469 14.714844 15.164062 14.742188 15.101562 C 14.800781 14.960938 14.867188 14.824219 14.9375 14.691406 C 14.972656 14.628906 15.015625 14.570312 15.050781 14.507812 C 15.101562 14.425781 15.152344 14.34375 15.207031 14.265625 C 15.25 14.210938 15.292969 14.152344 15.335938 14.097656 C 15.40625 14.007812 15.480469 13.917969 15.5625 13.832031 C 15.59375 13.796875 15.621094 13.761719 15.652344 13.730469 C 15.777344 13.605469 15.90625 13.484375 16.046875 13.375 C 16.191406 13.257812 16.34375 13.15625 16.5 13.058594 C 17.171875 12.644531 17.957031 12.398438 18.800781 12.398438 C 18.96875 12.398438 19.140625 12.410156 19.304688 12.429688 C 19.355469 12.4375 19.40625 12.445312 19.457031 12.453125 C 19.574219 12.472656 19.6875 12.492188 19.800781 12.519531 C 19.859375 12.53125 19.914062 12.546875 19.96875 12.5625 C 20.078125 12.59375 20.183594 12.625 20.289062 12.664062 C 20.339844 12.683594 20.394531 12.703125 20.445312 12.722656 C 20.566406 12.769531 20.679688 12.824219 20.796875 12.882812 C 20.828125 12.898438 20.863281 12.914062 20.894531 12.929688 C 21.03125 13.003906 21.164062 13.089844 21.289062 13.175781 C 21.34375 13.210938 21.390625 13.253906 21.441406 13.289062 C 21.523438 13.351562 21.601562 13.414062 21.675781 13.476562 C 21.726562 13.523438 21.777344 13.566406 21.824219 13.613281 C 21.902344 13.6875 21.976562 13.761719 22.046875 13.84375 C 22.085938 13.882812 22.125 13.925781 22.160156 13.96875 C 22.265625 14.089844 22.363281 14.21875 22.457031 14.355469 C 22.925781 15.054688 23.199219 15.898438 23.199219 16.800781 C 23.199219 19.226562 21.226562 21.199219 18.800781 21.199219 Z M 18.800781 21.199219"/>
    <path d="M 21.199219 16.398438 L 16.398438 16.398438 C 16.179688 16.398438 16 16.578125 16 16.800781 C 16 17.019531 16.179688 17.199219 16.398438 17.199219 L 21.199219 17.199219 C 21.421875 17.199219 21.601562 17.019531 21.601562 16.800781 C 21.601562 16.578125 21.421875 16.398438 21.199219 16.398438 Z M 21.199219 16.398438"/>
</svg>

<svg xmlns="http://www.w3.org/2000/svg" width="32" height="32" viewBox="0 0 24 24">
    <path d="M23.2 14.043V2.398v-.007c-.005-.043-.009-.09-.024-.133-.004-.004-.004-.004-.004-.008-.008-.008-.012-.02-.02-.027a.357.357 0 0 0-.058-.09l-.032-.031c-.027-.02-.054-.04-.082-.055-.015-.008-.027-.012-.039-.02a.449.449 0 0 0-.14-.027H.398a.449.449 0 0 0-.14.027c-.012.008-.024.012-.035.02a.428.428 0 0 0-.082.055l-.036.03a.357.357 0 0 0-.058.09L.03 2.25c-.004.004-.004.004-.004.008a.319.319 0 0 0-.023.133C0 2.395 0 2.398 0 2.398v15.606c0 .043.008.086.023.129 0 .004.004.008.004.012.008.015.016.027.024.039.015.027.031.058.054.082.012.011.02.023.036.03.023.024.05.04.078.056a.182.182 0 0 0 .039.02.449.449 0 0 0 .14.026h13.457A5.203 5.203 0 0 0 18.801 22C21.668 22 24 19.668 24 16.8a5.155 5.155 0 0 0-.8-2.757zm-1.118-1.273c-.094-.075-.191-.145-.289-.215-.04-.028-.074-.055-.113-.082a5.434 5.434 0 0 0-.297-.18c-.047-.027-.09-.055-.133-.078a4.12 4.12 0 0 0-.297-.14 2.027 2.027 0 0 0-.16-.079c-.094-.035-.188-.07-.285-.101a3.708 3.708 0 0 0-.192-.067c-.093-.031-.187-.05-.28-.074-.071-.016-.141-.04-.212-.05a2.874 2.874 0 0 0-.312-.048c-.067-.011-.13-.023-.196-.031a5.628 5.628 0 0 0-.515-.023 5.19 5.19 0 0 0-2.453.613l-2.11-1.723 8.16-7.207v9.762c-.066-.063-.14-.121-.21-.184l-.106-.093zm-.34-9.97l-8.418 7.434c-.008.008-.011.008-.02.016l-.784.695a1.41 1.41 0 0 1-1.84-.004l-.793-.695c0-.004 0-.008-.004-.012l-.035-.023L1.457 2.8zM8.977 10.505C6.754 12.445 2.434 15.883.8 17.176V3.286zm4.687 7.098H1.551c1.82-1.442 5.922-4.715 8.027-6.563l.57.504c.399.355.926.535 1.454.535.523 0 1.05-.18 1.449-.535l.582-.512 2.012 1.64c-.016.013-.024.024-.04.036a5.88 5.88 0 0 0-.335.285c-.036.035-.075.067-.11.102-.098.097-.191.199-.281.3-.098.11-.184.227-.27.34-.043.059-.09.118-.129.18a4.3 4.3 0 0 0-.175.285c-.035.059-.07.117-.102.18-.05.094-.098.191-.14.293a3.305 3.305 0 0 0-.09.207 3.55 3.55 0 0 0-.18.543c-.023.09-.05.176-.07.265-.024.11-.04.22-.059.333-.008.07-.023.14-.031.21a5.52 5.52 0 0 0-.031.57 4.664 4.664 0 0 0 .05.707c.008.032.008.063.012.095zm5.137 3.597a4.408 4.408 0 0 1-4.36-3.828c0-.016-.004-.027-.004-.039a4.1 4.1 0 0 1-.039-.531c0-.176.016-.348.036-.52.007-.054.015-.113.027-.168a3.11 3.11 0 0 1 .062-.332 3.218 3.218 0 0 1 .148-.488c.024-.063.044-.129.071-.191.059-.141.125-.278.195-.41.036-.063.079-.122.114-.184.05-.082.101-.164.156-.242.043-.055.086-.114.129-.168.07-.09.144-.18.226-.266.032-.035.06-.07.09-.102a4.264 4.264 0 0 1 .848-.671 4.37 4.37 0 0 1 2.3-.66 4.309 4.309 0 0 1 1 .12c.06.012.114.028.169.043.11.032.215.063.32.102.05.02.106.04.156.059.121.047.235.101.352.16l.098.047c.136.074.27.16.394.246.055.035.102.078.152.113.082.063.16.125.235.188.05.046.101.09.148.136a3.1 3.1 0 0 1 .223.23 4.215 4.215 0 0 1 .41.512 4.403 4.403 0 0 1-3.656 6.844zm0 0"/>
    <path d="M21.2 16.398h-4.802a.401.401 0 0 0 0 .801H21.2a.401.401 0 1 0 0-.8zm0 0"/>
</svg>
